X: 49
T: O Fortune trop tu es dure
N: Derived from Bus3045-O_Fortune_trop_tu_es_dure.krn
C: Antoine Busnoys
%%abc-version 2.0
%%abcx-abcm2ps-target-version 5.9.1 (29 Sep 2008)
%%abc-creator hum2abc beta
%%abcx-conversion-date 2019/02/16 20:26:07
%%abc-edited-by Jesse Rodin
%%abc-edited-by Chris Gage 02-12-2015
%%abcx-initial-encoding-date 2015/02/20/
%%humdrum-veritas 3023893100
%%humdrum-veritas-data 171915733
%%linebreak <none>
%%barnumbers 0
L: 1/4
M: 2/1
Q: 1/2=120
V: 1 clef=treble
V: 2 clef=treble-8
V: 3 clef=bass
K: Bb
[V:1] A8 | 
[V:2] d8- | 
[V:3] D,8 | 
[V:1] B4A4 | 
[V:2] d8 | 
[V:3] G,4F,4 | 
[V:1] G6F=E | 
[V:2] B4c4 | 
[V:3] G,4E,4 | 
[V:1] F6F2 | 
[V:2] d6cB | 
[V:3] D,8 | 
[V:1] F4G4- | 
[V:2] A4B4 | 
[V:3] z4G,,4 | 
[V:1] G2F2=E2D2 | 
[V:2] G8 | 
[V:3] B,,4C,4 | 
[V:1] D4=E4 | 
[V:2] F4G4- | 
[V:3] D,4C,4 | 
[V:1] D2G4=E2 | 
[V:2] G4=E4 | 
[V:3] B,,2G,,2C,4 | 
[V:1] F4B4- | 
[V:2] D4G4- | 
[V:3] B,,4G,,4 | 
[V:1] B2A2A4- | 
[V:2] G4F4 | 
[V:3] G,4D,4 | 
[V:1] A4G4 | 
[V:2] B8 | 
[V:3] (3G,4E,4G,4 | 
[V:1] A4F4- | 
[V:2] A8 | 
[V:3] D,8 | 
[V:1] F4B4 | 
[V:2] d8 | 
[V:3] B,,4G,,4 | 
[V:1] A2G2G4- | 
[V:2] c4B4 | 
[V:3] F,4G,4 | 
[V:1] G4^F4 | 
[V:2] A8 | 
[V:3] D,8 | 
[V:1] G8 | 
[V:2] G8- | 
[V:3] G,,8 | 
[V:1] z4D4 | 
[V:2] G8 | 
[V:3] C,4B,,4 | 
[V:1] =E4F4 | 
[V:2] z4d4 | 
[V:3] C,4D,4 | 
[V:1] G3FD4 | 
[V:2] =e4f4 | 
[V:3] C,4D,4 | 
[V:1] z4A4 | 
[V:2] g3fd4 | 
[V:3] E,4F,4 | 
[V:1] B4c4 | 
[V:2] z4A4 | 
[V:3] G,4z4 | 
[V:1] d3cA4 | 
[V:2] B2G4F2 | 
[V:3] G,,4A,,4 | 
[V:1] B2G4A2- | 
[V:2] G2B2c2A2- | 
[V:3] G,,2G,2E,2F,2 | 
[V:1] AGF2=E4 | 
[V:2] A2d4^c2 | 
[V:3] D,3C,A,,4 | 
[V:1] F4D4 | 
[V:2] d4B4 | 
[V:3] z4D,4 | 
[V:1] z4d4 | 
[V:2] G4z4 | 
[V:3] B,,4G,,4 | 
[V:1] d4d4 | 
[V:2] g4g4 | 
[V:3] z4G,4 | 
[V:1] B4G4 | 
[V:2] g4=e4 | 
[V:3] G,4C,4- | 
[V:1] c4A4 | 
[V:2] c4f4 | 
[V:3] C,4D,4 | 
[V:1] B4c4 | 
[V:2] g4a4- | 
[V:3] G,4F,4 | 
[V:1] B2d4cB | 
[V:2] a2g2g4- | 
[V:3] G,8 | 
[V:1] A4A4 | 
[V:2] g2^f2^f2=e2 | 
[V:3] A,8 | 
[V:1] B2c2B2AG | 
[V:2] g6^f=e | 
[V:3] (3G,4E,4G,4 | 
[V:1] A8 | 
[V:2] ^f8 | 
[V:3] D,8 | 
[V:1] A8 | 
[V:2] ^f8 | 
[V:3] D,8 | 
[V:1] A4A4 | 
[V:2] ^f4^f4 | 
[V:3] D,4D,4 | 
[V:1] B4d4- | 
[V:2] g6f2 | 
[V:3] G,,4G,4 | 
[V:1] d2c2A4 | 
[V:2] d4c4 | 
[V:3] F,4A,4 | 
[V:1] B6AG | 
[V:2] d4e4 | 
[V:3] G,4C,4 | 
[V:1] F4B4 | 
[V:2] d2d4B2 | 
[V:3] D,4G,4 | 
[V:1] c4d4- | 
[V:2] A4G4 | 
[V:3] F,4B,4- | 
[V:1] d2c2B2A2 | 
[V:2] d6=e2 | 
[V:3] B,2A,2G,3F, | 
[V:1] A4z2d2- | 
[V:2] f4g4 | 
[V:3] D,4G,4 | 
[V:1] d2c2d2=e2 | 
[V:2] =e4d4- | 
[V:3] A,4D,4 | 
[V:1] f2=efg2f2 | 
[V:2] d4c4 | 
[V:3] z4A,4 | 
[V:1] =e2d2d4- | 
[V:2] d4f4 | 
[V:3] F,4D,4 | 
[V:1] d4^c4 | 
[V:2] =e8 | 
[V:3] A,8 | 
[V:1] d8 | 
[V:2] d8- | 
[V:3] B,4G,4- | 
[V:1] z4A4 | 
[V:2] d8 | 
[V:3] G,4^F,4 | 
[V:1] B4c4 | 
[V:2] z4A4 | 
[V:3] G,4z4 | 
[V:1] d4G4 | 
[V:2] B4c4 | 
[V:3] D,4E,4 | 
[V:1] z4B4 | 
[V:2] d4G4 | 
[V:3] D,4E,4 | 
[V:1] A4G4 | 
[V:2] z4B4 | 
[V:3] F,4G,4 | 
[V:1] F4B4 | 
[V:2] A4G4 | 
[V:3] D,4G,4 | 
[V:1] A2c4B2 | 
[V:2] F4c4 | 
[V:3] A,3G,E,4 | 
[V:1] A2G2G3=E | 
[V:2] c4B2c2 | 
[V:3] F,4G,2E,2 | 
[V:1] F2G2A2c2 | 
[V:2] d2B2A4 | 
[V:3] D,2G,4F,2 | 
[V:1] B2d4c2 | 
[V:2] G4F4 | 
[V:3] G,2B,2A,4 | 
[V:1] B2G2A2GA | 
[V:2] B4c4 | 
[V:3] G,4F,2A,2 | 
[V:1] B4G4- | 
[V:2] d4B4 | 
[V:3] G,2D,2E,2G,2 | 
[V:1] G4^F4 | 
[V:2] A8 | 
[V:3] D,3C,A,,2D,2 | 
[V:1] G8- | 
[V:2] G8- | 
[V:3] E,2C,4B,,2 | 
[V:1] G8 |]  
[V:2] G8 |]  
[V:3] G,,8 |]  



